Hatter-kde/actions/24/format-justify-fill.svg

<?xml version="1.0" encoding="UTF-8"?>
<svg viewBox="0 0 24 24" xmlns="http://www.w3.org/2000/svg">
 <defs id="defs3051">
  <style id="current-color-scheme" type="text/css">.ColorScheme-Text {
        color:#363636;
      }</style>
 </defs>
 <path class="ColorScheme-Text" d="m4 4v1h16v-1h-16zm0 3v1h16v-1h-16zm0 3v1h16v-1h-16zm0 3v1h16v-1h-16zm0 3v1h16v-1h-16zm0 3v1h16v-1h-16z" fill="currentColor"/>
</svg>

<svg xmlns="http://www.w3.org/2000/svg" viewBox="0 0 24 24">
  <defs id="defs3051">
    <style type="text/css" id="current-color-scheme">
      .ColorScheme-Text {
        color:#363636;
      }
      </style>
  </defs>
 <path style="fill:currentColor;fill-opacity:1;stroke:none" 
     d="M 4 4 L 4 5 L 20 5 L 20 4 L 4 4 z M 4 7 L 4 8 L 20 8 L 20 7 L 4 7 z M 4 10 L 4 11 L 20 11 L 20 10 L 4 10 z M 4 13 L 4 14 L 20 14 L 20 13 L 4 13 z M 4 16 L 4 17 L 20 17 L 20 16 L 4 16 z M 4 19 L 4 20 L 20 20 L 20 19 L 4 19 z "
     class="ColorScheme-Text"
     />
</svg>
